icons/fill-new-medic-health-heart-cardiogram.svg

<svg xmlns="http://www.w3.org/2000/svg" width="32px" height="32px" viewBox="0 0 32 32" version="1.1">
    <title>fill-new-medic-health-heart-cardiogram</title>
    <g id="fill-new-medic-health-heart-cardiogram" stroke-width="1" fill-rule="evenodd">
        <path d="M16,5.5 C25,-3 42.5,15 16,30 C-10.5,15 7,-3 16,5.5 Z M14.7071068,12.2928932 C14.3165825,11.9023689 13.6834175,11.9023689 13.2928932,12.2928932 L9.29289322,16.2928932 C8.90236893,16.6834175 8.90236893,17.3165825 9.29289322,17.7071068 L9.38710056,17.7902954 C9.77939176,18.0953203 10.3466228,18.0675907 10.7071068,17.7071068 L14,14.415 L17.2928932,17.7071068 C17.6834175,18.0976311 18.3165825,18.0976311 18.7071068,17.7071068 L22.7071068,13.7071068 C23.0976311,13.3165825 23.0976311,12.6834175 22.7071068,12.2928932 L22.6128994,12.2097046 C22.2206082,11.9046797 21.6533772,11.9324093 21.2928932,12.2928932 L18,15.585 L14.7071068,12.2928932 Z" id="&#24418;&#29366;" />
    </g>
</svg>

<svg xmlns="http://www.w3.org/2000/svg" viewBox="0 0 32 32"><path fill="currentColor" d="M16 5.5C25-3 42.5 15 16 30-10.5 15 7-3 16 5.5m-1.293 6.793a1 1 0 0 0-1.414 0l-4 4a1 1 0 0 0 0 1.414l.094.083a1 1 0 0 0 1.32-.083L14 14.415l3.293 3.292a1 1 0 0 0 1.414 0l4-4a1 1 0 0 0 0-1.414l-.094-.083a1 1 0 0 0-1.32.083L18 15.585z"/></svg>
